!!!OTL: Xiangsi pu
!!!ARE: Asia, China,ÿHebei, Shijiazhuang
!! IV, 79(1)
!!!SCT: C1643
!!!YEM: Copyright 1995, estate of Helmut Schaffrath.
**kern
*ICvox
*Ivox
*M2/4
*k[f#c#g#d#]
*E:
{8b
16b
16cc#
8ee
16ee
16cc#
=1
8b
16cc#
16b
8g#
16f#
16e
=2
8b
16b
16cc#
8b
16g#
16f#
=3
4e
8e
8e}
=4
{16f#
16g#
4b
16b
16cc#
=5
8e
16e
16c#
8e
8f#
=6
8a
8b
16f#
16e
8c#
=7
4B
4B}
=8
{16f#
16g#
4b
16b
16cc#
=9
8e
16e
16c#
8e
8f#
=10
8a
8b
16f#
16e
8c#
=11
4B
4B}
==
!!!AGN: Wuge, Lahua
!!!AMT: simple duple
!!!AIN: vox
!!!EED: Helmut Schaffrath
!!!EEV: 1.0
*-
